logos/jotai.svg

<?xml version="1.0" encoding="UTF-8"?>
<svg width="512px" height="177px" viewBox="0 0 512 177" version="1.1" xmlns="http://www.w3.org/2000/svg" preserveAspectRatio="xMidYMid">
    <title>Jotai</title>
    <g>
        <path d="M74.9966962,9.40490258 L109.449853,9.40490258 L109.449853,124.325477 C109.703598,134.016906 107.251233,143.587261 102.368012,151.962362 C97.6198179,159.753429 90.7552584,166.034685 82.5742661,170.07417 C73.4273937,174.499068 63.3608148,176.689565 53.2023305,176.465532 C43.9306106,176.596862 34.7339046,174.787674 26.2028117,171.154151 C18.3770871,167.799903 11.7225947,162.199039 7.081841,155.060667 C2.36061367,147.872599 0,138.807842 0,127.866398 L34.6833163,127.866398 C34.7895439,134.399396 36.6839364,139.498322 40.3664937,143.110061 C44.29049,146.837616 49.5665825,148.800962 54.9727908,148.545374 C68.2158335,148.545374 74.8904686,140.472075 74.9966962,124.325477 L74.9966962,9.40490258 Z M185.898326,176.624951 C173.398877,176.624951 162.604971,173.95738 153.516608,168.622393 C144.483389,163.355303 137.171226,155.581902 132.465836,146.243775 C127.348699,135.883545 124.809859,124.440542 125.065312,112.888304 C124.800211,101.284038 127.338886,89.7871201 132.465836,79.3734917 C137.176254,70.0388865 144.48721,62.2667678 153.516608,56.9948741 C163.393404,51.4612147 174.580867,48.6964617 185.898326,48.9923938 C197.221183,48.6985306 208.413806,51.4630474 218.297749,56.9948741 C227.32251,62.2670443 234.627677,70.0395453 239.330817,79.3734917 C244.46322,89.7858231 247.007949,101.282651 246.749045,112.888304 C246.999002,124.442 244.454072,135.885078 239.330817,146.243775 C234.632713,155.581245 227.326338,163.355031 218.297749,168.622393 C209.197583,173.969183 198.397776,176.636676 185.898326,176.624951 Z M225.096316,9.40490258 L225.096316,27.9947352 L146.718041,27.9947352 L146.718041,9.40490258 L225.096316,9.40490258 Z M186.146191,150.06797 C193.856565,150.384283 201.115591,146.496148 205.131439,139.941762 L205.426503,139.445208 C209.793638,132.363367 211.977206,123.434346 211.977206,112.658144 C211.977206,102.24115 209.920239,93.5336983 205.806306,86.5357903 L205.373389,85.817967 C201.425146,78.964062 193.99621,74.8709843 186.093077,75.1952055 C178.324851,74.865608 170.999518,78.7525105 166.911332,85.3317746 L166.618014,85.817967 C162.21547,92.899808 160.014197,101.846534 160.014197,112.658144 C160.014197,123.109368 162.071164,131.801416 166.185097,138.73429 L166.618014,139.445208 C170.541161,146.136791 177.750838,150.187427 185.47726,150.083572 L186.146191,150.06797 Z M329.836745,50.6035126 L329.836745,76.3637093 L306.572897,76.3637093 L306.572897,136.311493 C306.572897,141.032721 307.646976,144.219549 309.795135,145.871979 C312.073102,147.515507 314.809409,148.391473 317.608808,148.382052 L318.169412,148.368328 C319.784878,148.370363 321.397034,148.222187 322.985064,147.925713 L326.685325,147.252938 L331.996706,172.76527 L330.675485,173.149517 C329.098913,173.594348 327.152455,174.097201 324.755524,174.641958 C321.43779,175.353142 318.066789,175.783453 314.678305,175.928704 L313.406874,175.969803 C300.954637,176.524547 290.963339,173.833448 283.432982,167.896504 C276.073768,162.094491 272.361261,153.316496 272.295461,141.562518 L272.296787,76.3637093 L255.388891,76.3637093 L255.388891,50.6035126 L272.296787,50.6035126 L272.296787,20.9837126 L306.572897,20.9837126 L306.572897,50.6035126 L329.836745,50.6035126 Z M382.419414,176.554055 C370.616346,176.554055 360.825701,173.467552 353.047479,167.294548 C345.269257,161.121543 341.380146,151.921051 341.380146,139.693072 C341.380146,130.474876 343.55191,123.233694 347.895439,117.969525 C352.403015,112.5923 358.328242,108.586945 364.998085,106.40842 C372.356774,103.91 379.989076,102.305076 387.730795,101.628177 C395.469462,101.014153 403.158535,99.884451 410.746778,98.246598 C415.373581,97.0662911 417.681081,94.4932222 417.669278,90.5273913 L417.669278,90.0316624 C417.928209,85.5723581 416.173848,81.2319405 412.889035,78.2049879 C409.678601,75.4312669 405.158025,74.0385048 399.32731,74.0267017 C394.113566,73.7545436 388.950162,75.1633088 384.59708,78.0456465 C381.095206,80.5316139 378.541926,84.1336732 377.355898,88.2612021 L345.646955,85.6940348 C347.761408,74.7977599 354.076028,65.1700305 363.227625,58.8892666 C372.599261,52.3031545 384.685603,49.0041969 399.486651,48.9923938 C408.25648,48.9235032 416.970072,50.3977422 425.229143,53.347726 C432.830117,55.9611937 439.542228,60.6608988 444.597978,66.9094515 C449.508055,73.0588501 451.963093,81.0377243 451.963093,90.8460741 L451.963093,174.217047 L419.457443,174.217047 L419.457443,157.078992 L418.501394,157.078992 C415.390976,162.917665 410.720553,167.778091 405.010487,171.118742 C399.026331,174.742284 391.495974,176.554055 382.419414,176.554055 Z M392.227764,152.883001 C399.011128,153.146608 405.637907,150.802528 410.746778,146.332298 C415.286978,142.37231 417.914361,136.670726 417.989336,130.666239 L417.987961,116.924954 C416.059096,118.068791 413.952804,118.882586 411.755941,119.33278 C408.923204,120.023259 405.931126,120.625216 402.726593,121.10324 L399.64337,121.57733 C397.667011,121.888144 395.845404,122.183221 394.157566,122.431085 C388.9935,122.99273 384.02698,124.731012 379.639792,127.512306 C375.998457,129.961911 373.908544,134.141738 374.13366,138.524569 C373.913856,142.702671 375.835203,146.705478 379.232586,149.14733 C382.859213,151.586342 387.125366,152.887358 391.485506,152.892913 L392.227764,152.883001 Z M494.018216,34.6706476 L493.409567,34.6693704 C488.556046,34.7486865 483.867193,32.9100452 480.361275,29.5527402 C476.846068,26.4488602 474.850208,21.9727069 474.890553,17.2834507 C474.851108,12.6045548 476.847719,8.13964187 480.361275,5.04957036 C487.78451,-1.68319012 499.105443,-1.68319012 506.528678,5.04957036 C510.042235,8.13964187 512.038845,12.6045548 511.9994,17.2834507 C512.038131,21.7851366 510.200296,26.0904269 506.943177,29.1737619 L506.528678,29.5527402 C503.148005,32.7805159 498.676932,34.6038472 494.018216,34.6706476 L494.018216,34.6706476 Z M476.253807,174.217047 L476.253807,50.6035126 L510.529918,50.6035126 L510.529918,174.217047 L476.253807,174.217047 Z" fill="#000000"></path>
    </g>
</svg>

<svg preserveAspectRatio="xMidYMid" viewBox="0 0 512 177" xmlns="http://www.w3.org/2000/svg">
  <path d="M74.997 9.405h34.453v114.92a52.158 52.158 0 0 1-7.082 27.637 48.139 48.139 0 0 1-19.794 18.112 64.197 64.197 0 0 1-29.372 6.392 66.499 66.499 0 0 1-27-5.312 43.022 43.022 0 0 1-19.12-16.093C2.36 147.873 0 138.808 0 127.866h34.683c.107 6.533 2 11.632 5.683 15.244a19.847 19.847 0 0 0 14.607 5.435c13.243 0 19.917-8.073 20.024-24.22V9.405Zm110.901 167.22c-12.5 0-23.293-2.668-32.381-8.003a54.07 54.07 0 0 1-21.051-22.378 71.74 71.74 0 0 1-7.4-33.356 72.146 72.146 0 0 1 7.4-33.515 54.176 54.176 0 0 1 21.05-22.378 62.887 62.887 0 0 1 32.382-8.003 62.993 62.993 0 0 1 32.4 8.003 54.123 54.123 0 0 1 21.033 22.378 72.164 72.164 0 0 1 7.418 33.515 71.739 71.739 0 0 1-7.418 33.356 54.017 54.017 0 0 1-21.033 22.378c-9.1 5.347-19.9 8.015-32.4 8.003Zm39.198-167.22v18.59h-78.378V9.405h78.378Zm-38.95 140.663a21.246 21.246 0 0 0 18.985-10.126l.296-.497c4.367-7.082 6.55-16.01 6.55-26.787 0-10.417-2.057-19.124-6.17-26.122l-.434-.718a21.246 21.246 0 0 0-19.28-10.623 21.511 21.511 0 0 0-19.182 10.137l-.293.486c-4.403 7.082-6.604 16.029-6.604 26.84 0 10.451 2.057 19.143 6.171 26.076l.433.711a21.529 21.529 0 0 0 18.86 10.639l.668-.016Zm143.69-99.464v25.76h-23.263v59.947c0 4.722 1.074 7.909 3.222 9.561a13.279 13.279 0 0 0 7.814 2.51l.56-.014a26.061 26.061 0 0 0 4.816-.442l3.7-.673 5.312 25.512-1.322.385c-1.576.444-3.523.947-5.92 1.492a60.426 60.426 0 0 1-10.077 1.287l-1.271.04c-12.452.556-22.444-2.136-29.974-8.072-7.36-5.803-11.072-14.58-11.138-26.334l.002-65.2h-16.908v-25.76h16.908v-29.62h34.276v29.62h23.264Zm52.583 125.95c-11.803 0-21.593-3.086-29.372-9.26-7.778-6.172-11.667-15.373-11.667-27.6 0-9.22 2.172-16.46 6.515-21.724a37.516 37.516 0 0 1 17.103-11.562 96.986 96.986 0 0 1 22.733-4.78 174.514 174.514 0 0 0 23.016-3.381c4.627-1.18 6.934-3.754 6.922-7.72v-.495c.26-4.46-1.495-8.8-4.78-11.827-3.21-2.774-7.731-4.166-13.562-4.178a24.38 24.38 0 0 0-14.73 4.019 18.944 18.944 0 0 0-7.241 10.215l-31.709-2.567a42.279 42.279 0 0 1 17.58-26.805c9.372-6.586 21.459-9.885 36.26-9.897a74.784 74.784 0 0 1 25.742 4.356 42.827 42.827 0 0 1 19.369 13.561c4.91 6.15 7.365 14.129 7.365 23.937v83.371h-32.506v-17.138h-.956a35.728 35.728 0 0 1-13.49 14.04c-5.985 3.623-13.515 5.435-22.592 5.435Zm9.809-23.671a26.557 26.557 0 0 0 18.519-6.55 21.14 21.14 0 0 0 7.242-15.667l-.001-13.741a20.148 20.148 0 0 1-6.232 2.408 100.93 100.93 0 0 1-9.03 1.77l-3.083.474c-1.976.311-3.798.606-5.485.854a33.975 33.975 0 0 0-14.518 5.081 12.5 12.5 0 0 0-5.506 11.013 12.287 12.287 0 0 0 5.099 10.622 22.007 22.007 0 0 0 12.253 3.746l.742-.01Zm101.79-118.212-.608-.002a18.43 18.43 0 0 1-13.049-5.116 16.182 16.182 0 0 1-5.47-12.27 16.111 16.111 0 0 1 5.47-12.233c7.424-6.733 18.744-6.733 26.168 0a16.111 16.111 0 0 1 5.47 12.233 16.182 16.182 0 0 1-5.056 11.89l-.414.38a18.501 18.501 0 0 1-12.51 5.118Zm-17.764 139.546V50.604h34.276v123.613h-34.276Z"/>
</svg>
